icons/themes/default/envelope.svg

<svg viewBox="0 0 16 16" fill="none" xmlns="http://www.w3.org/2000/svg">
    <path fill-rule="evenodd" clip-rule="evenodd" d="M2.06003 4.67001C2.06003 4.15375 2.18876 3.85839 2.35858 3.68857C2.52841 3.51874 2.82377 3.39001 3.34003 3.39001H12.68C13.1963 3.39001 13.4916 3.51874 13.6615 3.68857C13.8313 3.85839 13.96 4.15375 13.96 4.67001V4.82477L8.19857 8.00219L8.19846 8.00225C8.14076 8.03409 8.07593 8.05079 8.01003 8.05079C7.94413 8.05079 7.8793 8.03409 7.8216 8.00225L7.82149 8.00219L2.06003 4.82477V4.67001ZM1.06003 5.10996C1.05991 5.11637 1.05991 5.12278 1.06003 5.12918V11.35C1.06003 12.0204 1.22797 12.6151 1.65148 13.0386C2.07498 13.4621 2.66962 13.63 3.34003 13.63H12.68C13.3504 13.63 13.9451 13.4621 14.3686 13.0386C14.7921 12.6151 14.96 12.0204 14.96 11.35V5.12918C14.9602 5.12278 14.9602 5.11637 14.96 5.10996V4.67001C14.96 3.99961 14.7921 3.40497 14.3686 2.98146C13.9451 2.55795 13.3504 2.39001 12.68 2.39001H3.34003C2.66962 2.39001 2.07498 2.55795 1.65148 2.98146C1.22797 3.40497 1.06003 3.99961 1.06003 4.67001V5.10996ZM13.96 5.96676V11.35C13.96 11.8663 13.8313 12.1616 13.6615 12.3315C13.4916 12.5013 13.1963 12.63 12.68 12.63H3.34003C2.82377 12.63 2.52841 12.5013 2.35858 12.3315C2.18876 12.1616 2.06003 11.8663 2.06003 11.35V5.96676L7.33846 8.87779L7.33857 8.87785C7.54418 8.99129 7.77519 9.05079 8.01003 9.05079C8.24487 9.05079 8.47587 8.99129 8.68149 8.87785L8.6816 8.87779L13.96 5.96676Z" fill="white" fill-opacity="0.7"></path>
</svg>

<svg xmlns="http://www.w3.org/2000/svg" fill="none" viewBox="0 0 16 16">
  <path fill="#fff" fill-opacity=".7" fill-rule="evenodd" d="M2.06 4.67c0-.516.129-.812.299-.981.17-.17.465-.299.981-.299h9.34c.516 0 .812.129.982.299.17.17.298.465.298.981v.155L8.199 8.002a.39.39 0 0 1-.377 0L2.06 4.825V4.67Zm-1 .44V11.35c0 .67.168 1.265.591 1.689.424.423 1.019.591 1.689.591h9.34c.67 0 1.265-.168 1.689-.591.423-.424.591-1.019.591-1.689V4.67c0-.67-.168-1.265-.591-1.689-.424-.423-1.019-.591-1.689-.591H3.34c-.67 0-1.265.168-1.689.591C1.228 3.405 1.06 4 1.06 4.67v.44Zm12.9.857v5.383c0 .516-.129.812-.299.982-.17.17-.465.298-.981.298H3.34c-.516 0-.812-.129-.981-.299-.17-.17-.299-.465-.299-.981V5.967l5.278 2.91a1.39 1.39 0 0 0 1.343 0l5.279-2.91Z" clip-rule="evenodd"/>
</svg>
